X:165
T:Lord Yarboroughs March. JGi.165
M:C|
L:1/8
Q:1/4=125
S:Joshua Gibbons MS,1823,Tealby,Lincs.
R:march
O:Tealby,Lincolnshire
Z:VMP/R.Greig, 2009
K:C
c2c2e2g2|c2c2e2g2|f2f2e2e2|d>cd>ec2z2|
d2B>cd2e^f|g2^fee2d2|d>edcB2A2|G2G>GG2z2||
d2B>cd2d>e|gfede2G2|.B.c.d.e .f.e.d.c|B2g>gg2z2|
c2c2e2g2|a2a2f2z2|e>de>fe2d2|c2c>cc2z2|]

